teeny/outline/toggle.svg

<svg width="15" height="15" viewBox="0 0 15 15" fill="none" xmlns="http://www.w3.org/2000/svg">
<path d="M3.5 2.5C4.05228 2.5 4.5 2.94771 4.5 3.5C4.5 4.05228 4.05228 4.5 3.5 4.5C2.94772 4.5 2.5 4.05228 2.5 3.5C2.5 2.94771 2.94772 2.5 3.5 2.5Z" stroke="black"/>
<path d="M11.5 0.5H3.5C1.84315 0.5 0.5 1.84315 0.5 3.5C0.5 5.15685 1.84315 6.5 3.5 6.5H11.5C13.1569 6.5 14.5 5.15685 14.5 3.5C14.5 1.84315 13.1569 0.5 11.5 0.5Z" stroke="black"/>
<path d="M11.5 12.5C10.9477 12.5 10.5 12.0523 10.5 11.5C10.5 10.9477 10.9477 10.5 11.5 10.5C12.0523 10.5 12.5 10.9477 12.5 11.5C12.5 12.0523 12.0523 12.5 11.5 12.5Z" stroke="black"/>
<path d="M3.5 14.5H11.5C13.1569 14.5 14.5 13.1569 14.5 11.5C14.5 9.84315 13.1569 8.5 11.5 8.5L3.5 8.5C1.84315 8.5 0.5 9.84315 0.5 11.5C0.5 13.1569 1.84315 14.5 3.5 14.5Z" stroke="black"/>
</svg>

<svg viewBox="0 0 15 15" xmlns="http://www.w3.org/2000/svg"><g fill="none" stroke="#000"><path d="M3.5 2.5c.55 0 1 .44 1 1 0 .55-.45 1-1 1 -.56 0-1-.45-1-1 0-.56.44-1 1-1Z"/><path d="M11.5.5h-8c-1.66 0-3 1.34-3 3 0 1.65 1.34 3 3 3h8c1.65 0 3-1.35 3-3 0-1.66-1.35-3-3-3Z"/><path d="M11.5 12.5c-.56 0-1-.45-1-1 0-.56.44-1 1-1 .55 0 1 .44 1 1 0 .55-.45 1-1 1Z"/><path d="M3.5 14.5h8c1.65 0 3-1.35 3-3 0-1.66-1.35-3-3-3h-8c-1.66 0-3 1.34-3 3 0 1.65 1.34 3 3 3Z"/></g></svg>
